web/src/assets/icons/credit-card.svg

<svg version="1.1" xmlns="http://www.w3.org/2000/svg" width="1024" height="1024" viewBox="0 0 1024 1024">
<path fill="currentColor" opacity="0.1" d="M796.16 123.733h-569.301c-0.013 0-0.028 0-0.043 0-93.455 0-169.216 75.761-169.216 169.216v0 433.835c0 93.455 75.761 169.216 169.216 169.216h569.344c93.437-0.024 169.173-75.776 169.173-169.216v-433.835c0-0.013 0-0.028 0-0.043 0-93.417-75.717-169.149-169.128-169.173h-0.002z"></path>
<path fill="currentColor" d="M799.659 121.6h-575.317c-0.013 0-0.028 0-0.043 0-94.422 0-170.965 76.544-170.965 170.965v0 438.443c0.024 94.412 76.554 170.941 170.963 170.965h575.405c94.422 0 170.965-76.544 170.965-170.965v0-438.443c0-94.422-76.544-170.965-170.965-170.965-0.015 0-0.030 0-0.045 0h0.002zM115.712 345.173h790.827v92.757h-789.931l-0.853-92.757zM224.299 184.021h575.403c54.87 0.318 100 41.606 106.361 94.805l0.050 0.512h-788.224c6.411-53.711 51.54-94.999 106.378-95.317h0.033zM799.701 837.888h-575.445c-59.481-0.024-107.691-48.249-107.691-107.733v0-229.803h790.784v229.803c-0.049 59.456-48.234 107.642-107.686 107.691h-0.005zM601.301 745.088c-0.213 17.604-14.403 31.824-31.975 32.085h-63.726c-17.708 0-32.064-14.356-32.064-32.064s14.356-32.064 32.064-32.064v0h63.659c17.634 0.214 31.871 14.452 32.085 32.065v0.020zM857.813 745.088c-0.213 17.619-14.427 31.848-32.020 32.085h-151.362c-17.708 0-32.064-14.356-32.064-32.064s14.356-32.064 32.064-32.064v0h151.765c17.615 0.238 31.829 14.467 32.042 32.065v0.020h-0.427z"></path>
</svg>

<svg xmlns="http://www.w3.org/2000/svg" viewBox="0 0 1024 1024">
  <path fill="currentColor" d="M796.16 123.733H226.816c-93.455 0-169.216 75.761-169.216 169.216v433.835C57.6 820.239 133.361 896 226.816 896H796.16c93.437-.024 169.173-75.776 169.173-169.216V292.906c0-93.417-75.717-169.149-169.128-169.173h-.002z" opacity=".1"/>
  <path fill="currentColor" d="M799.659 121.6h-575.36c-94.422 0-170.965 76.544-170.965 170.965v438.443c.024 94.412 76.554 170.941 170.963 170.965h575.405c94.422 0 170.965-76.544 170.965-170.965V292.565c0-94.422-76.544-170.965-170.965-170.965h-.045.002zM115.712 345.173h790.827v92.757H116.608l-.853-92.757zm108.587-161.152h575.403c54.87.318 100 41.606 106.361 94.805l.05.512H117.889c6.411-53.711 51.54-94.999 106.378-95.317h.033zm575.402 653.867H224.256c-59.481-.024-107.691-48.249-107.691-107.733V500.352h790.784v229.803c-.049 59.456-48.234 107.642-107.686 107.691h-.005zm-198.4-92.8c-.213 17.604-14.403 31.824-31.975 32.085H505.6c-17.708 0-32.064-14.356-32.064-32.064s14.356-32.064 32.064-32.064h63.659c17.634.214 31.871 14.452 32.085 32.065v.02zm256.512 0c-.213 17.619-14.427 31.848-32.02 32.085H674.431c-17.708 0-32.064-14.356-32.064-32.064s14.356-32.064 32.064-32.064h151.765c17.615.238 31.829 14.467 32.042 32.065v.02h-.427z"/>
</svg>
